X: 9670
T: Dead Rabbit, The
R: jig
M: 6/8
K: Edorian
~F2A dcA|~B2e dcB|~c2A BAE|FAB dcA|
~B2e edc|~e3 dcA|~F2A dcA|~B2e dcB|
~c2A BAE|FAB ~c3|Bcd edc|BAF E3|
~F2A dcA|~B2e dcB|~c2A BAE|FAB dcA||
~B2e edc|~e3 dcA|~F2A dcA|~B2e dcB|
~c2A BAE|FAB ~c3|BAE FAB|ABc Bde|
~f2a ~e3|edc edc|~A3 AFA|Bcd cAE|
~F3 Bcd|~e3 B/c/de|~f2a ~e3|edc edc||
~A3 AFA|Bcd cAE|~F2d edc|~B3 cde|
~a3 ~e3|edc edc|~A3 AFA|Bcd cAE|
~F3 Bcd|~e3 B/c/de|~f2a ~e3|edc edc|
dcA ~F3|EFA Bcd|cAd edc|BAF E3||

